img/icon-debit.svg

<?xml version="1.0" encoding="UTF-8"?>
<svg width="19px" height="20px" viewBox="0 0 19 20" version="1.1" xmlns="http://www.w3.org/2000/svg" xmlns:xlink="http://www.w3.org/1999/xlink">
    <!-- Generator: Sketch 45.1 (43504) - http://www.bohemiancoding.com/sketch -->
    <title>icon-debit</title>
    <desc>Created with Sketch.</desc>
    <defs></defs>
    <g id="Page-1" stroke="none" stroke-width="1" fill="none" fill-rule="evenodd">
        <g id="1920x1080" transform="translate(-621.000000, -611.000000)" fill="#636363">
            <g id="Modal" transform="translate(510.000000, 299.000000)">
                <g id="Info" transform="translate(95.000000, 126.000000)">
                    <g id="Group-8" transform="translate(16.000000, 164.000000)">
                        <g id="icon-debit" transform="translate(0.000000, 22.000000)">
                            <path d="M18.1051975,18.3683407 C18.1051975,18.6172932 17.9123495,18.8198703 17.6753535,18.8198703 L2.20033481,18.8198703 C1.96333879,18.8198703 1.77049081,18.6172932 1.77049081,18.3683407 L1.77049081,15.3077552 L2.9955991,15.3077552 L2.9955991,16.8782189 C2.9955991,17.2392203 3.2752269,17.5329554 3.61889053,17.5329554 L16.2567978,17.5329554 C16.6004614,17.5329554 16.8800892,17.2392203 16.8800892,16.8782189 L16.8800892,3.60272951 C16.8800892,3.24172806 16.6004614,2.94799304 16.2567978,2.94799304 L3.61889053,2.94799304 C3.2752269,2.94799304 2.9955991,3.24172806 2.9955991,3.60272951 L2.9955991,5.17319323 L1.77049081,5.17319323 L1.77049081,2.11260769 C1.77049081,1.86365522 1.96333879,1.66107807 2.20033481,1.66107807 L17.6753535,1.66107807 C17.9123495,1.66107807 18.1051975,1.86365522 18.1051975,2.11260769 L18.1051975,18.3683407 Z M1.77049081,6.94945668 L3.80810652,6.94945668 L3.80810652,6.07628951 L1.77049081,6.07628951 L1.77049081,6.94945668 Z M3.81233796,15.3077552 L4.23798578,15.3077552 C4.47540494,15.3077552 4.66782978,15.1055484 4.66782978,14.8561885 L4.66782978,13.0799251 C4.66782978,12.8306022 4.47540494,12.6283954 4.23798578,12.6283954 L3.81233796,12.6283954 L3.81233796,7.85255296 L4.23798578,7.85255296 C4.47540494,7.85255296 4.66782978,7.65034621 4.66782978,7.40102334 L4.66782978,5.62475989 C4.66782978,5.37539998 4.47540494,5.17319323 4.23798578,5.17319323 L3.81233796,5.17319323 L3.81233796,3.80593636 L16.0633503,3.80593636 L16.0633503,16.675012 L3.81233796,16.675012 L3.81233796,15.3077552 Z M1.77049081,14.4046589 L3.80810652,14.4046589 L3.80810652,13.5314917 L1.77049081,13.5314917 L1.77049081,14.4046589 Z M1.77049081,12.6283954 L2.9955991,12.6283954 L2.9955991,7.85255296 L1.77049081,7.85255296 L1.77049081,12.6283954 Z M17.6753535,0.757981787 L2.20033481,0.757981787 C1.48927622,0.757981787 0.910767549,1.3656762 0.910767549,2.11260769 L0.910767549,18.3683407 C0.910767549,19.1152722 1.48927622,19.7229666 2.20033481,19.7229666 L17.6753535,19.7229666 C18.3864121,19.7229666 18.9649207,19.1152722 18.9649207,18.3683407 L18.9649207,2.11260769 C18.9649207,1.3656762 18.3864121,0.757981787 17.6753535,0.757981787 L17.6753535,0.757981787 Z" id="Fill-1"></path>
                            <path d="M12.273706,9.83409754 C12.2150653,9.45739071 12.0752514,9.10272327 11.8631503,8.79280134 L12.6273135,7.99008614 C13.0406549,8.53440343 13.282235,9.1757681 13.352618,9.83402346 L12.273706,9.83402346 L12.273706,9.83409754 Z M10.3247037,12.6941802 C10.6833185,12.6326181 11.0209523,12.4857136 11.3159896,12.262912 L12.0801528,13.0656272 C11.5619774,13.4998217 10.9513803,13.7536636 10.3247037,13.8275603 L10.3247037,12.6941802 Z M8.5596987,12.262875 C8.854736,12.4856395 9.19236982,12.6325811 9.55098455,12.6941802 L9.55098455,13.8275233 C8.92430796,13.7535895 8.31371086,13.4997846 7.79553551,13.0655902 L8.5596987,12.262875 Z M9.55098455,7.78676816 C9.19236982,7.84836732 8.854736,7.99523483 8.5596987,8.2180734 L7.79553551,7.4153582 C8.31371086,6.98116376 8.92430796,6.72735892 9.55098455,6.65342512 L9.55098455,7.78676816 Z M11.3159896,8.2180734 C11.0209523,7.99530892 10.6833185,7.84836732 10.3247037,7.78680521 L10.3247037,6.65346216 C10.9513803,6.72739597 11.5619774,6.98116376 12.0801528,7.4153582 L11.3159896,8.2180734 Z M9.93784414,11.9148749 C9.51205528,11.9148749 9.11179611,11.7407082 8.81069374,11.4244152 C8.50962663,11.1081963 8.34382462,10.6877811 8.34382462,10.2404742 C8.34382462,9.79316725 8.50962663,9.37275206 8.81069374,9.05653316 C9.11179611,8.74024018 9.51205528,8.56611051 9.93784414,8.56611051 C10.363633,8.56611051 10.7638922,8.74024018 11.064924,9.05653316 C11.3660264,9.37275206 11.5318284,9.79316725 11.5318284,10.2404742 C11.5318284,10.6877811 11.3660264,11.1081963 11.064924,11.4244152 C10.7638922,11.7407082 10.363633,11.9148749 9.93784414,11.9148749 Z M7.24841004,7.99008614 L8.01257323,8.79280134 C7.80050745,9.10272327 7.66062303,9.45739071 7.60198229,9.83409754 L6.52310559,9.83409754 C6.59345331,9.17580514 6.83506866,8.53440343 7.24841004,7.99008614 Z M6.52310559,10.6468509 L7.60198229,10.6468509 C7.66062303,11.0235577 7.80043693,11.3782251 8.01257323,11.6881471 L7.24841004,12.4908623 C6.83506866,11.946545 6.59345331,11.3051433 6.52310559,10.6468509 Z M12.6272783,12.4907882 L11.8631151,11.688073 C12.0751808,11.3781881 12.2150653,11.0234836 12.2736707,10.6468138 L13.3525827,10.6468138 C13.282235,11.3051433 13.0406196,11.946545 12.6272783,12.4907882 Z M6.95908518,7.11139987 C5.31658038,8.83680603 5.31658038,11.6441424 6.95908518,13.3695485 C7.78033758,14.2321961 8.85910849,14.6635754 9.93784414,14.6635754 C11.0166151,14.6635754 12.0953507,14.2321961 12.9166384,13.3695485 C14.5591432,11.6441424 14.5591432,8.83680603 12.9166384,7.11139987 C11.2740983,5.38606778 8.60158997,5.38606778 6.95908518,7.11139987 L6.95908518,7.11139987 Z" id="Fill-4"></path>
                        </g>
                    </g>
                </g>
            </g>
        </g>
    </g>
</svg>

<svg xmlns="http://www.w3.org/2000/svg" width="19" height="20"><title>icon-debit</title><desc>Created with Sketch.</desc><g fill="none"><g fill="#636363"><g><g><g><g><path d="M18.1 18.37c0 .25-.2.45-.42.45H2.2c-.24 0-.43-.2-.43-.45V15.3H3v1.58c0 .36.28.65.62.65h12.64c.34 0 .62-.3.62-.65V3.6c0-.36-.28-.65-.62-.65H3.62c-.34 0-.62.3-.62.65v1.57H1.77V2.1c0-.24.2-.44.43-.44h15.48c.23 0 .43.2.43.45v16.27zM1.78 6.95H3.8v-.87H1.78v.87zM3.8 15.3h.44c.24 0 .43-.2.43-.44v-1.78c0-.25-.2-.45-.43-.45H3.8V7.85h.44c.24 0 .43-.2.43-.45V5.62c0-.24-.2-.45-.43-.45H3.8V3.8h12.26V16.7H3.8V15.3zm-2.03-.9H3.8v-.87H1.78v.87zm0-1.77H3V7.85H1.77v4.78zM17.67.76H2.2C1.5.76.9 1.36.9 2.1v16.27c0 .75.6 1.35 1.3 1.35h15.48c.7 0 1.28-.6 1.28-1.35V2.1c0-.73-.57-1.34-1.28-1.34z"/><path d="M12.27 9.83c-.05-.37-.2-.73-.4-1.04l.76-.8c.4.53.65 1.18.72 1.83h-1.08zm-1.95 2.86c.36-.07.7-.2 1-.44l.76.8c-.52.44-1.13.7-1.76.77V12.7zm-1.76-.44c.3.23.63.37 1 .43v1.13c-.64-.08-1.25-.33-1.76-.76l.76-.8zm1-4.47c-.37.05-.7.2-1 .42l-.76-.8c.5-.44 1.12-.7 1.75-.77V7.8zm1.76.42c-.3-.22-.64-.37-1-.43V6.64c.63.08 1.24.33 1.76.77l-.76.8zm-1.38 3.7c-.43 0-.83-.18-1.13-.5-.3-.3-.46-.73-.46-1.18 0-.45.17-.87.47-1.18.3-.32.7-.5 1.14-.5.42 0 .82.18 1.12.5.3.3.47.73.47 1.18 0 .45-.16.87-.47 1.18-.3.32-.7.5-1.12.5zm-2.7-3.93l.77.8c-.2.3-.34.66-.4 1.03H6.52c.07-.65.32-1.3.73-1.84zm-.72 2.65H7.6c.06.37.2.73.4 1.04l-.75.8c-.4-.55-.66-1.2-.73-1.85zm6.1 1.84l-.76-.8c.22-.32.36-.68.4-1.05h1.1c-.08.66-.32 1.3-.73 1.84zM6.97 7.1c-1.64 1.74-1.64 4.54 0 6.27.82.86 1.9 1.3 2.98 1.3s2.16-.44 2.98-1.3c1.64-1.73 1.64-4.53 0-6.26-1.65-1.7-4.32-1.7-5.96 0z"/></g></g></g></g></g></g></svg>
